X:335
T: Great Gates of Annesbrook
C: Geata\'i M\'ora Annesbrook
S: B.Breathnach:"Ceol Rince na hEireann" IV/195
Z: B.Black
L: 1/8
M: 4/4
R: reel
K: Ador
gf|eA A2 GABd|eA A2 gfgd|egdB GABc|dgfg agfg|
eA A2 GABd|eA A2 gfgd|egdB GABc|dGBG A2 :|
Bd|eaag efge|e2 ef g2 fe|egdB GABc|dgfg agfg|
eaag efge|d2 ef gfgd|egdB GABc|dGBG A2 :|
